X:1
%
T:Sprig of Myrtle, The
M:2/4
L:1/8
R:Country Dance
S:Henry Hudson manuscript collection c. 1841 (Dublin, No. 292)
N:Hudson was a Dublin dentist and an early collector. He was
N:music editor of The Citizen or Dublin Monthly Magazine from
N:1841-1843.
N:”Also ‘Walker’s Hib. Mag’, 1787, but not exactly same,
N:especially in 2nd part.”
F:  http://rarebooks.library.nd.edu/digital/bookreader/MSE_1434-2/#page/7/mode/1up
Z:AK/Fiddler’s Companion
K:F
A c2f|f2 ed|cAGF|d2c2|
Accf|f2 ed|cAGF|A2 D2:|
|:AFAc|GEGc|AFAc|d2 ef|
cAcf|dABc|dage|1 fdcB:|2 f2F2||

